!!!!SEGMENT: pl-gd--ee-1638--002-018_marenzio-luca--motettorum-pro-festis-totius-anni-in-festo-s-maria-magd-mulier-quae-erat.krn
!!!cenid: 15xx:1021
!!!COM: Marenzio, Luca
!!!COM-rismID: pe30003955
!!!CDT: ~1553-1599/08/22
!!!CNT: Italian
!!!GTL: Motettorum pro festis totius anni
!!!OTL: In festo S. Maria Magd./Mulier quae erat
!!!OMV: 018
!!!PDT: 1588
!!!AGN:
!!!SMS-siglum: PL-GD
!!!SMS-shelfmark: Ee 1638
!!!SMS-shelfwork: 002-018 G
!!!SMS-variant:
!!!SMS-altvar:
!!!NIFC-rismSourceID: 990039238
!!!NIFC-islandoraID: pl-gd:57883
!!!URL-pdf-islandora: https://repozytorium.nifc.pl/islandora/object/pl-gd%3A57883/datastream/PDF/view
!!!URL-scan: https://polish.musicsources.pl/pl/lokalizacje/galeria/klocki-introligatorskie/655 @EN{Scan on Polish Music Herritage in Open Access Website} @PL{Skany w portalu Dziedzictwo Muzyki Polskiej w otwartym dostępie}
!!!ONB-nifc: UWAGA: Cantus: s. 625 (lewa), Altus: s. 473 (lewa), Tenor: s. 321 (lewa), Bassus: s. 169 (lewa)
!!!AIN: 1 alto 1 bass 1 soprn 1 tenor
!!!key:
**kern	**text	**kern	**text	**kern	**text	**kern	**text
*part4	*part4	*part3	*part3	*part2	*part2	*part1	*part1
*staff4	*staff4	*staff3	*staff3	*staff2	*staff2	*staff1	*staff1
*I"Basso	*	*I"Tenor	*	*I"Altus	*	*I"Cantus	*
*I'B	*	*I'T	*	*I'A	*	*I'C	*
*Ibass	*	*Itenor	*	*Ialto	*	*Isoprn	*
*ICvox	*	*ICvox	*	*ICvox	*	*ICvox	*
*IG	*	*	*	*	*	*	*
*clefF3	*	*clefC3	*	*clefC2	*	*clefG2	*
*k[b-]	*	*k[b-]	*	*k[b-]	*	*k[b-]	*
*g:	*	*g:	*	*g:	*	*g:	*
*M2/1	*	*M2/1	*	*M2/1	*	*M2/1	*
*met(C|)	*	*met(C|)	*	*met(C|)	*	*met(C|)	*
=1-	=1-	=1-	=1-	=1-	=1-	=1-	=1-
!	!	!	!	!	!	!LO:TX:a:B:t=Prestissimo	!
1.G	MV-	1r	.	0r	.	0r	.
.	.	1.d	MV-	.	.	.	.
2G\	-li-	.	.	.	.	.	.
=2-	=2-	=2-	=2-	=2-	=2-	=2-	=2-
1G	-er	.	.	0r	.	0r	.
.	.	2d\	-li-	.	.	.	.
2r	.	1d	-er	.	.	.	.
2G\	quae	.	.	.	.	.	.
=3-	=3-	=3-	=3-	=3-	=3-	=3-	=3-
1B-	e-	2r	.	0r	.	0r	.
.	.	2d\	quae	.	.	.	.
2B-\	-rat	1f	e-	.	.	.	.
2B-\	in	.	.	.	.	.	.
=4-	=4-	=4-	=4-	=4-	=4-	=4-	=4-
2A\	ci-	2f\	-rat	0r	.	0r	.
2F/	-ui-	2f\	in	.	.	.	.
1A	-ta-	2e\	ci-	.	.	.	.
.	.	2c/	-ui-	.	.	.	.
=5-	=5-	=5-	=5-	=5-	=5-	=5-	=5-
2G\	-te	1e	-ta-	0r	.	0r	.
2c\	pec-	.	.	.	.	.	.
1.B-	-ca-	2d\	-te	.	.	.	.
.	.	2g\	pec-	.	.	.	.
=6-	=6-	=6-	=6-	=6-	=6-	=6-	=6-
.	.	1.f	-ca-	0r	.	0r	.
4A\	.	.	.	.	.	.	.
!LO:SIC:v:t=custos A	!	!	!	!	!	!	!
4G\	.	.	.	.	.	.	.
!LO:LB:g=original	!	!	!	!	!	!	!
0A	.	.	.	.	.	.	.
.	.	4e\	.	.	.	.	.
!	!	!LO:SIC:v:t=custos e	!	!	!	!	!
.	.	4d\	.	.	.	.	.
!	!	!LO:LB:g=original	!	!	!	!	!
=7-	=7-	=7-	=7-	=7-	=7-	=7-	=7-
.	.	2e\	.	0r	.	0r	.
.	.	2f#X\	.	.	.	.	.
0G	-trix	2g\	-trix	.	.	.	.
.	.	1d\	Mu-	.	.	.	.
=8-	=8-	=8-	=8-	=8-	=8-	=8-	=8-
.	.	.	.	1.g	MV-	1r	.
.	.	2d\	-li-	.	.	.	.
1.G	Mu-	1d	-er	.	.	1.dd	MV-
.	.	.	.	2g\	-li-	.	.
=9-	=9-	=9-	=9-	=9-	=9-	=9-	=9-
.	.	1.B-	mu-	1g	-er	.	.
2G\	-li-	.	.	.	.	2dd\	-li-
1G	-er	.	.	2r	.	1dd	-er
.	.	2B-/	-li-	2g\	quae	.	.
=10-	=10-	=10-	=10-	=10-	=10-	=10-	=10-
2r	.	0B-	-er	1b-	e-	2r	.
2G\	quae	.	.	.	.	2dd\	quae
1d	e-	.	.	2b-\	-rat	1ff	e-
.	.	.	.	2b-\	in	.	.
=11-	=11-	=11-	=11-	=11-	=11-	=11-	=11-
2d\	-rat	0r	.	2a\	ci-	2ff\	-rat
2d\	in	.	.	2f\	-ui-	2ff\	in
2c\	ci-	.	.	1a	-ta-	2ee\	ci-
2A\	-ui-	.	.	.	.	2cc\	-ui-
=12-	=12-	=12-	=12-	=12-	=12-	=12-	=12-
1c	-ta-	0r	.	2g\	-te	1ee	-ta-
.	.	.	.	2cc\	pec-	.	.
!	!	!	!	!	!	!LO:SIC:v:t=custos gg	!
2G\	-te	.	.	1.b-	-ca-	2dd\	-te
!	!	!	!	!	!	!LO:LB:g=original	!
2G\	pec-	.	.	.	.	2gg\	pec-
=13-	=13-	=13-	=13-	=13-	=13-	=13-	=13-
1.d	-ca-	0r	.	.	.	1.ff	-ca-
.	.	.	.	4a\	.	.	.
!	!	!	!	!LO:SIC:v:t=custos a	!	!	!
.	.	.	.	4g\	.	.	.
!	!	!	!	!LO:LB:g=original	!	!	!
.	.	.	.	0a	.	.	.
4c\	.	.	.	.	.	4ee\	.
4B-\	.	.	.	.	.	4dd\	.
=14-	=14-	=14-	=14-	=14-	=14-	=14-	=14-
2c\	.	1r	.	.	.	2ee\	.
2d\	.	.	.	.	.	2ff#X\	.
!LO:SIC:v:t=custos B	!	!	!	!	!	!	!
1G	-trix	2r	.	2g\	-trix	1gg	-trix
!LO:LB:g=original	!	!	!	!	!	!	!
.	.	2.g\	at-	2.b-\	at-	.	.
=15-	=15-	=15-	=15-	=15-	=15-	=15-	=15-
0r	.	.	.	.	.	2.dd\	at-
.	.	4g\	-tu-	4b-\	-tu-	.	.
.	.	2fny\	-lit	2a\	-lit	.	.
.	.	.	.	.	.	4dd\	-tu-
.	.	2e\	a-	2g\	a-	2ee\	-lit
.	.	2d\	-la-	2f\	-la-	1ffny\	a-
=16-	=16-	=16-	=16-	=16-	=16-	=16-	=16-
0r	.	1f	-baſ-	1a	-baſ-	.	.
.	.	.	.	.	.	2cc\	-la-
.	.	2c/	-trum	2g\	-trum	2ee-X\	-baſ-
.	.	2d\	vn-	2f#X\	vn-	2dd\	-trum
=17-	=17-	=17-	=17-	=17-	=17-	=17-	=17-
0r	.	2.e-X\	-guen-	2.g\	-guen-	2cc\	vn-
.	.	.	.	.	.	1b-	-guen-
.	.	4d\	.	4fny\	.	.	.
!	!	!LO:SIC:v:t=custos B	!	!	!	!	!
.	.	1c	.	1e-X	.	.	.
!	!	!LO:LB:g=original	!	!	!	!	!
.	.	.	.	.	.	2a/	.
=18-	=18-	=18-	=18-	=18-	=18-	=18-	=18-
2r	.	2B-/	-ti	1d	-ti	1b-	-ti
2.B-\	at-	2.d\	at-	.	.	.	.
.	.	.	.	2.f\	at-	2.ff\	at-
4B-\	-tu-	4d\	-tu-	.	.	.	.
2A\	-lit	2c/	-lit	.	.	.	.
!	!	!	!	!	!	!LO:SIC:v:t=custos ee	!
.	.	.	.	4f\	-tu-	4ff\	-tu-
!	!	!	!	!	!	!LO:LB:g=original	!
=19-	=19-	=19-	=19-	=19-	=19-	=19-	=19-
2G\	a-	2B-/	a-	2g\	-lit	2eeny\	-lit
2F/	-la-	2A/	-la-	1a	a-	2dd\	a-
1A	-baſ-	1c	-baſ-	.	.	2cc\	-la-
.	.	.	.	2eny/	-la-	1eeny\	-baſ-
=20-	=20-	=20-	=20-	=20-	=20-	=20-	=20-
!	!	!	!	!LO:SIC:v:t=custos a	!	!	!
2G\	-trum	2B-/	-trum	2g\	-ba-	.	.
!	!	!	!	!LO:LB:g=original	!	!	!
2F#X/	vn-	2A/	vn-	2a\	-ſtrum	1dd	-trum
2.G\	-guen-	2.B-/	-guen-	2d/	vn-	.	.
.	.	.	.	2.d/	-guen-	2g/	vn-
4F#/	.	4A/	.	.	.	.	.
=21-	=21-	=21-	=21-	=21-	=21-	=21-	=21-
1E-X	.	1G	.	.	.	1g	-guen-
.	.	.	.	8c/	.	.	.
.	.	.	.	8B-/	.	.	.
.	.	.	.	2c/	.	.	.
1D	-ti	1A	-ti	1d	-ti-	1f#X	-ti
=22-	=22-	=22-	=22-	=22-	=22-	=22-	=22-
0G	er	0Bny	er	0d	-er	0g	er
=23-	=23-	=23-	=23-	=23-	=23-	=23-	=23-
0C	ſtans	0c	ſtas	0e	ſtans	0g	ſta(n)s
=24-	=24-	=24-	=24-	=24-	=24-	=24-	=24-
0r	.	2r	.	2.f\	re-	0a	er
.	.	2.f\	re-	.	.	.	.
.	.	.	.	4g\	.	.	.
.	.	.	.	2a\	.	.	.
.	.	4g\	.	.	.	.	.
.	.	2a\	.	2d/	-tro	.	.
=25-	=25-	=25-	=25-	=25-	=25-	=25-	=25-
!	!	!LO:SIC:v:t=custos f	!	!	!	!	!
0D	er	2d\	-tro	2.f\	ſe-	00a	ſtans
!	!	!LO:LB:g=original	!	!	!	!	!
.	.	2.f\	ſe-	.	.	.	.
.	.	.	.	4e/	-cus	.	.
.	.	.	.	2d/	pe-	.	.
.	.	4eny\	-cus	.	.	.	.
.	.	2d\	pe-	2A/	-des	.	.
=26-	=26-	=26-	=26-	=26-	=26-	=26-	=26-
!LO:SIC:v:t=custos B	!	!	!	!	!	!	!
0D	ſtans	2A/	-des	4f\	do-	.	.
!LO:LB:g=original	!	!	!	!	!	!	!
.	.	.	.	4g\	.	.	.
.	.	4f\	do-	4a\	.	.	.
!	!	!	!	!LO:SIC:v:t=custos f	!	!	!
.	.	4g\	.	4g\	.	.	.
!	!	!	!	!LO:LB:g=original	!	!	!
.	.	4a\	.	4f\	.	.	.
.	.	4g\	.	4e/	.	.	.
.	.	4f\	.	1d/	.	.	.
.	.	4e\	.	.	.	.	.
=27-	=27-	=27-	=27-	=27-	=27-	=27-	=27-
2.B-\	re-	2d\	.	.	.	2.dd\	re-
.	.	2g\	-mi-	2b-\	-mi-	.	.
4c\	.	.	.	.	.	4ee\	.
2d\	.	4f\	-ni	2a\	-ni	2ff\	.
.	.	4e\	.	.	.	.	.
2G\	-tro	4d\	.	2.g\	ſe-	2b-/	-tro
.	.	4c/	.	.	.	.	.
=28-	=28-	=28-	=28-	=28-	=28-	=28-	=28-
2.B-\	ſe-	0d	.	.	.	2.dd\	ſe-
.	.	.	.	4d/	-cus	.	.
.	.	.	.	2f\	pe-	.	.
4A\	-cus	.	.	.	.	4cc\	-cus
!	!	!	!	!	!	!LO:SIC:v:t=custos a	!
2G\	pe-	.	.	2g\	-des	2b-/	pe-
!	!	!	!	!	!	!LO:LB:g=original	!
2D/	-des	.	.	1f\	do-	2a/	-des
=29-	=29-	=29-	=29-	=29-	=29-	=29-	=29-
4B-\	do-	2r	.	.	.	4dd\	do-
4c\	.	.	.	.	.	4ee\	.
4d\	.	2.B-y/	ſe-	2f\	-mi-	4ff\	.
4c\	.	.	.	.	.	4ee\	.
4B-\	.	.	.	2f\	-ni	4dd\	.
4A\	.	4c/	-cus	.	.	4cc\	.
4G\	.	2d\	pe-	4g\	do-	4b-/	.
4Fny/	.	.	.	4a\	.	4a/	.
=30-	=30-	=30-	=30-	=30-	=30-	=30-	=30-
2.E-X/	.	2G/	-des	4b-\	.	2.g/	.
.	.	.	.	4a\	.	.	.
.	.	1B-	do-	4g\	.	.	.
4D/	.	.	.	4f\	.	8a/	.
.	.	.	.	.	.	8b-/	.
1.C	.	.	.	1.e-X	.	1.cc	.
.	.	4A/	.	.	.	.	.
!	!	!LO:SIC:v:t=custos A	!	!	!	!	!
.	.	4G/	.	.	.	.	.
!	!	!LO:LB:g=original	!	!	!	!	!
=31-	=31-	=31-	=31-	=31-	=31-	=31-	=31-
.	.	2.A/	.	.	.	.	.
2C/	-mi-	.	.	2eny/	-mi-	2cc\	-mi-
.	.	4A/	-mi-	.	.	.	.
!LO:SIC:v:t=custos B	!	!	!	!	!	!	!
1BB-	-ni	1B-	-ni	1d	-ni	0fny	-ni
!LO:LB:g=original	!	!	!	!	!	!	!
=32-	=32-	=32-	=32-	=32-	=32-	=32-	=32-
1.B-	la-	1.d	la-	1r	.	.	.
.	.	.	.	1.f	la-	1r	.
2A\	-cry-	2c/	-cri-	.	.	.	.
=33-	=33-	=33-	=33-	=33-	=33-	=33-	=33-
0A	-mis	0c	-mis	.	.	0r	.
.	.	.	.	2eny/	-cry-	.	.
!	!	!	!	!LO:SIC:v:t=custos g	!	!	!
.	.	.	.	0e	-mis	.	.
!	!	!	!	!LO:LB:g=original	!	!	!
=34-	=34-	=34-	=34-	=34-	=34-	=34-	=34-
1c	coe-	1eny	coe-	.	.	0r	.
2c\	-pit	2e\	-pit	1g	coe-	.	.
2c\	ri-	2e\	ri-	.	.	.	.
=35-	=35-	=35-	=35-	=35-	=35-	=35-	=35-
1.B-	-ga-	1.d	-ga-	2g\	-pit	0r	.
.	.	.	.	2g\	ri-	.	.
.	.	.	.	1.f	-ga-	.	.
2A\	-re	2c/	-re	.	.	.	.
=36-	=36-	=36-	=36-	=36-	=36-	=36-	=36-
0G	pe-	0B-	pe-	.	.	0r	.
.	.	.	.	2e/	-re	.	.
.	.	.	.	2d/	pe-	.	.
.	.	.	.	1e\	-des	.	.
=37-	=37-	=37-	=37-	=37-	=37-	=37-	=37-
1F	-des	1A	-des	.	.	0r	.
.	.	.	.	1d	e-	.	.
0Eny	e-	0G	e-	.	.	.	.
.	.	.	.	4c/	.	.	.
.	.	.	.	4Bny/	.	.	.
=38-	=38-	=38-	=38-	=38-	=38-	=38-	=38-
.	.	.	.	1c#X	.	1r	.
1D	-ius	1A	-ius	1d	-ius	0dd	er
=39-	=39-	=39-	=39-	=39-	=39-	=39-	=39-
1G	er	1r	.	1b-	et	.	.
1G	ſta(n)s	1g	er	0b-	ſtans	0.dd	ſtans
=40-	=40-	=40-	=40-	=40-	=40-	=40-	=40-
2.B-\	re-	2f\	ſtans	.	.	.	.
.	.	2.B-/	re-	.	.	.	.
4c\	.	.	.	.	.	.	.
2d\	.	.	.	2.B-y/	re-	.	.
.	.	4c/	.	.	.	.	.
!	!	!LO:SIC:v:t=custos G	!	!	!	!	!
2G\	-tro	2d\	.	.	.	.	.
!	!	!LO:LB:g=original	!	!	!	!	!
.	.	.	.	4cny/	.	.	.
=41-	=41-	=41-	=41-	=41-	=41-	=41-	=41-
2.B-\	ſe-	2G/	-tro	2d/	.	2.dd\	re-
!	!	!	!	!LO:SIC:v:t=custos d	!	!	!
.	.	2.B-/	ſe-	2G/	-tro	.	.
!	!	!	!	!LO:LB:g=original	!	!	!
!LO:SIC:v:t=custos G	!	!	!	!	!	!LO:SIC:v:t=custos b	!
4A\	-cus	.	.	.	.	4cc\	.
!LO:LB:g=original	!	!	!	!	!	!LO:LB:g=original	!
2G\	pe-	.	.	2.d/	ſe-	2b-/	.
.	.	4c/	-cus	.	.	.	.
2D/	-des	2d\	pe-	.	.	2a/	-tro
.	.	.	.	4e/	-cus	.	.
=42-	=42-	=42-	=42-	=42-	=42-	=42-	=42-
4B-\	do-	0d	-des	1f	pe-	2.b-/	ſe-
4c\	.	.	.	.	.	.	.
4d\	.	.	.	.	.	.	.
4c\	.	.	.	.	.	4cc\	-cus
4B-\	.	.	.	2f\	-des	2.dd\	pe-
4A\	.	.	.	.	.	.	.
4G\	.	.	.	4B-/	do-	.	.
4F\	.	.	.	4c/	.	4ff\	-des
=43-	=43-	=43-	=43-	=43-	=43-	=43-	=43-
2.B-\	.	2.d\	do-	4d/	.	4ff\	do-
.	.	.	.	4e/	.	4ee\	.
.	.	.	.	1f	.	4dd\	.
4A\	.	8e\	.	.	.	4cc\	.
.	.	8f\	.	.	.	.	.
1.G	.	1.g	.	.	.	1.b-	.
.	.	.	.	4e/	.	.	.
.	.	.	.	4d/	.	.	.
=44-	=44-	=44-	=44-	=44-	=44-	=44-	=44-
.	.	.	.	2.e/	.	.	.
2G\	-mi-	2g\	-mi-	.	.	2b-/	-mi-
.	.	.	.	4e/	-mi-	.	.
0F	-ni	0c	-ni	1f	-ni	0a	-ni
=45-	=45-	=45-	=45-	=45-	=45-	=45-	=45-
.	.	.	.	1r	.	.	.
1r	.	1.e-X	la-	1.g	la-	1r	.
=46-	=46-	=46-	=46-	=46-	=46-	=46-	=46-
0r	.	.	.	.	.	1.b-	la-
.	.	2d\	-cry-	2f\	-cry-	.	.
.	.	0d	-mis	0f	-mis	.	.
.	.	.	.	.	.	2a/	-cri-
=47-	=47-	=47-	=47-	=47-	=47-	=47-	=47-
0r	.	.	.	.	.	0a	-mis
.	.	1f	coe-	1a	coe-	.	.
=48-	=48-	=48-	=48-	=48-	=48-	=48-	=48-
0r	.	2f\	-pit	2a\	-pit	1cc	coe-
.	.	2f\	ri-	2a\	ri-	.	.
.	.	1.e-X	-ga-	1.g	-ga-	2cc\	-pit
!	!	!	!	!	!	!LO:SIC:v:t=custos b	!
.	.	.	.	.	.	2cc\	ri-
!	!	!	!	!	!	!LO:LB:g=original	!
=49-	=49-	=49-	=49-	=49-	=49-	=49-	=49-
0r	.	.	.	.	.	1.b-	-ga-
!	!	!	!	!LO:SIC:v:t=custos e	!	!	!
.	.	2d\	-re	2f\	-re	.	.
!	!	!LO:SIC:v:t=custos B	!	!LO:LB:g=original	!	!	!
.	.	0c	pe-	0e-X	pe-	.	.
!	!	!LO:LB:g=original	!	!	!	!	!
.	.	.	.	.	.	2a/	-re
=50-	=50-	=50-	=50-	=50-	=50-	=50-	=50-
0r	.	.	.	.	.	2g/	pe-
.	.	.	.	.	.	1a	-des
.	.	1B-	-des	1d	-des	.	.
.	.	.	.	.	.	1g/	e-
=51-	=51-	=51-	=51-	=51-	=51-	=51-	=51-
0r	.	0A	e-	0c	e-	.	.
.	.	.	.	.	.	4f#X/	.
.	.	.	.	.	.	4e/	.
.	.	.	.	.	.	1f#X	.
=52-	=52-	=52-	=52-	=52-	=52-	=52-	=52-
2r	.	2.G/	-ius	0d	-ius	2g/	-ius
1G	er	.	.	.	.	1dd	er
.	.	4A/	.	.	.	.	.
.	.	1B-	.	.	.	.	.
!LO:SIC:v:t=custos d	!	!	!	!	!	!	!
2G\	ca-	.	.	.	.	2dd\	ca-
!LO:LB:g=original	!	!	!	!	!	!	!
=53-	=53-	=53-	=53-	=53-	=53-	=53-	=53-
4d\	-pil-	0r	.	2r	.	4ff\	-pil-
4c\	.	.	.	.	.	4ee\	.
4B-\	.	.	.	1d	et	4dd\	.
4A\	.	.	.	.	.	4cc\	.
2G\	.	.	.	.	.	2b-/	.
2B-\	-lis	.	.	2d/	ca-	2dd\	-lis
=54-	=54-	=54-	=54-	=54-	=54-	=54-	=54-
2.A\	ca-	1r	.	4a\	-pil-	2.cc\	ca-
.	.	.	.	4g\	.	.	.
.	.	.	.	4f\	.	.	.
4A\	-pi-	.	.	4eny/	.	4cc\	-pi-
!	!	!	!	!	!	!LO:SIC:v:t=custos b	!
1B-	-tis	2r	.	2d/	.	1dd	-tis
!	!	!	!	!	!	!LO:LB:g=original	!
.	.	1d\	et	2G/	-lis	.	.
=55-	=55-	=55-	=55-	=55-	=55-	=55-	=55-
1G	ſu-	.	.	2.B-/	ca-	2b-/	ſu-
.	.	2d\	ca-	.	.	2g/	-i
.	.	.	.	4B-/	-pi-	.	.
2F/	-i	4a\	-pil-	2c/	-tis	2r	.
.	.	4g\	.	.	.	.	.
1D/	er	4f\	.	4d/	ſu-	1a/	er
.	.	4eny\	.	4e/	.	.	.
=56-	=56-	=56-	=56-	=56-	=56-	=56-	=56-
.	.	2d\	.	1f	.	.	.
2D/	ca-	2d\	-lis	.	.	2a/	ca-
4A\	-pil-	2.c/	ca-	2e/	-i	4cc\	-pil-
4G\	.	.	.	.	.	4b-/	.
*	*	*	*	*	*ij	*	*
4F/	.	.	.	1A/	et	4a/	.
4E/	.	4c/	-pi-	.	.	4g/	.
=57-	=57-	=57-	=57-	=57-	=57-	=57-	=57-
2D/	.	2d\	-tis	.	.	2fny/	.
!LO:SIC:v:t=custos E	!	!	!	!LO:SIC:v:t=custos e	!	!	!
2F/	-lis	1c	ſu-	2A/	ca-	2a/	-lis
!LO:LB:g=original	!	!	!	!LO:LB:g=original	!	!	!
2.E/	ca-	.	.	4e/	-pil-	2.g/	ca-
.	.	.	.	4d/	.	.	.
!	!	!LO:SIC:v:t=custos A	!	!	!	!	!
.	.	2G/	-i	4c/	.	.	.
!	!	!LO:LB:g=original	!	!	!	!	!
4E/	-pi-	.	.	4B-/	.	4g/	-pi-
=58-	=58-	=58-	=58-	=58-	=58-	=58-	=58-
1F	-tis	2r	.	2A/	-lis	1a	-tis
.	.	1A	et	2c/	ca-	.	.
1D	ſu-	.	.	2.f\	.	1dd	ſu-
.	.	2A/	ca-	.	.	.	.
.	.	.	.	4f\	.	.	.
=59-	=59-	=59-	=59-	=59-	=59-	=59-	=59-
2C/	-i	4e\	-pil-	2g\	.	2ee\	-i
.	.	4d\	.	.	.	.	.
2.F/	ter-	4c/	.	2.a\	-pi-	2.ff\	ter-
.	.	4B-/	.	.	.	.	.
.	.	2A/	.	.	.	.	.
4G\	.	.	.	8g\	.	8ee\	.
.	.	.	.	8f\	.	8dd\	.
4A\	.	2c/	-lis	4e/	.	2cc\	.
4F/	.	.	.	4f\	.	.	.
=60-	=60-	=60-	=60-	=60-	=60-	=60-	=60-
*lig	*	*	*	*	*	*	*
1G	.	2.Bny/	ca-	1d	.	1.gg	-ge-
.	.	4B/	-pi-	.	.	.	.
1C	.	2c/	-tis	2e/	.	.	.
.	.	2c/	ſu-	1a\	-tis	4ff\	.
!	!	!	!	!	!	!LO:SIC:v:t=custos ee	!
.	.	.	.	.	.	4ee\	.
!	!	!	!	!	!	!LO:LB:g=original	!
*Xlig	*	*	*	*	*Xij	*	*
=61-	=61-	=61-	=61-	=61-	=61-	=61-	=61-
0D	-ge-	2F/	-i	.	.	0dd	.
.	.	2B-y/	ter-	1g	ter-	.	.
.	.	1A	-ge-	.	.	.	.
.	.	.	.	2f#X\	-ge-	.	.
=62-	=62-	=62-	=62-	=62-	=62-	=62-	=62-
00G	-bat.	00G	-bat.	00g	-bat.	00bny	-bat.
=63-	=63-	=63-	=63-	=63-	=63-	=63-	=63-
*-	*-	*-	*-	*-	*-	*-	*-
!!!system-decoration: s1,s2,s3,s4
!!!ENC: Andrzej Gręziak
!!!END: 2022-07-02
!!!ENC: Julita Ruszuk
!!!END: 2022-07-05
